src/assets/filled/Weight.svg

<?xml version="1.0" encoding="UTF-8"?>
<svg width="24" height="24" viewBox="0 0 24 24" xmlns="http://www.w3.org/2000/svg">
 <path d="m16 2h-8c-3 0-5 2-5 5v10c0 3 2 5 5 5h8c3 0 5-2 5-5v-10c0-3-2-5-5-5zm1.57 6.48-2.18 3.5c-0.06 0.09-0.16 0.16-0.26 0.17h-0.05c-0.09 0-0.18-0.03-0.25-0.09-1.61-1.43-4.03-1.43-5.64 0-0.08 0.07-0.19 0.11-0.3 0.09s-0.21-0.08-0.26-0.17l-2.18-3.5c-0.12-0.15-0.09-0.35 0.05-0.48 3.13-2.79 7.86-2.79 11 0 0.14 0.13 0.17 0.33 0.07 0.48z"/>
</svg>

<svg width="24" height="24" viewBox="0 0 24 24"  xmlns="http://www.w3.org/2000/svg">
<path d="M16 2H8C5 2 3 4 3 7V17C3 20 5 22 8 22H16C19 22 21 20 21 17V7C21 4 19 2 16 2ZM17.57 8.48L15.39 11.98C15.33 12.07 15.23 12.14 15.13 12.15C15.11 12.15 15.09 12.15 15.08 12.15C14.99 12.15 14.9 12.12 14.83 12.06C13.22 10.63 10.8 10.63 9.19 12.06C9.11 12.13 9 12.17 8.89 12.15C8.78 12.13 8.68 12.07 8.63 11.98L6.45 8.48C6.33 8.33 6.36 8.13 6.5 8C9.63 5.21 14.36 5.21 17.5 8C17.64 8.13 17.67 8.33 17.57 8.48Z" />
</svg>
